svgs/light/transporter-1.svg

<svg xmlns="http://www.w3.org/2000/svg" viewBox="0 0 512 512"><!-- Font Awesome Pro 6.0.0-alpha2 by @fontawesome - https://fontawesome.com License - https://fontawesome.com/license (Commercial License) --><path d="M124.297 282.25L175.516 220.781C180.301 215.039 185.977 210.377 192 206.254V272C192 280.844 199.156 288 208 288S224 280.844 224 272V193.426C228.277 192.723 232.559 192 236.969 192H275.031C279.441 192 283.723 192.723 288 193.426V272C288 280.844 295.156 288 304 288S320 280.844 320 272V206.258C326.023 210.383 331.699 215.049 336.484 220.797L387.703 282.25C390.875 286.047 395.422 288 400.016 288C403.625 288 407.25 286.781 410.25 284.297C417.031 278.641 417.953 268.547 412.297 261.75L361.078 200.312C339.734 174.688 308.375 160 275.031 160H236.969C203.625 160 172.266 174.688 150.922 200.297L99.703 261.75C94.047 268.547 94.969 278.641 101.75 284.297C108.578 289.922 118.641 289.031 124.297 282.25ZM336 320H176C167.156 320 160 327.156 160 336S167.156 352 176 352H336C344.844 352 352 344.844 352 336S344.844 320 336 320ZM496 160H480V144C480 135.156 472.844 128 464 128S448 135.156 448 144V160H432C423.156 160 416 167.156 416 176S423.156 192 432 192H448V208C448 216.844 455.156 224 464 224S480 216.844 480 208V192H496C504.844 192 512 184.844 512 176S504.844 160 496 160ZM256 128C291.348 128 320 99.346 320 64C320 28.652 291.348 0 256 0C220.654 0 192 28.652 192 64C192 99.346 220.654 128 256 128ZM256 32C273.645 32 288 46.355 288 64S273.645 96 256 96S224 81.645 224 64S238.355 32 256 32ZM368 448H144C117.531 448 96 469.531 96 496C96 504.844 103.156 512 112 512S128 504.844 128 496C128 487.172 135.172 480 144 480H368C376.828 480 384 487.172 384 496C384 504.844 391.156 512 400 512S416 504.844 416 496C416 469.531 394.469 448 368 448ZM336 384H176C167.156 384 160 391.156 160 400S167.156 416 176 416H336C344.844 416 352 408.844 352 400S344.844 384 336 384ZM80 352H64V336C64 327.156 56.844 320 48 320S32 327.156 32 336V352H16C7.156 352 0 359.156 0 368S7.156 384 16 384H32V400C32 408.844 39.156 416 48 416S64 408.844 64 400V384H80C88.844 384 96 376.844 96 368S88.844 352 80 352Z"/></svg>

<svg xmlns="http://www.w3.org/2000/svg" viewBox="0 0 512 512"><!--! Font Awesome Pro 6.3.0 by @fontawesome - https://fontawesome.com License - https://fontawesome.com/license (Commercial License) Copyright 2023 Fonticons, Inc. --><path d="M124.3 282.3l51.22-61.47C180.3 215 185.1 210.4 192 206.3V272C192 280.8 199.2 288 208 288S224 280.8 224 272V193.4C228.3 192.7 232.6 192 236.1 192h38.06C279.4 192 283.7 192.7 288 193.4V272C288 280.8 295.2 288 304 288S320 280.8 320 272V206.3c6.023 4.125 11.7 8.791 16.48 14.54l51.22 61.45C390.9 286 395.4 288 400 288c3.609 0 7.234-1.219 10.23-3.703c6.781-5.656 7.703-15.75 2.047-22.55l-51.22-61.44C339.7 174.7 308.4 160 275 160H236.1C203.6 160 172.3 174.7 150.9 200.3L99.7 261.8c-5.656 6.797-4.734 16.89 2.047 22.55C108.6 289.9 118.6 289 124.3 282.3zM336 320h-160C167.2 320 160 327.2 160 336S167.2 352 176 352h160c8.844 0 16-7.156 16-16S344.8 320 336 320zM496 160H480V144C480 135.2 472.8 128 464 128S448 135.2 448 144V160h-16C423.2 160 416 167.2 416 176S423.2 192 432 192H448v16C448 216.8 455.2 224 464 224S480 216.8 480 208V192h16C504.8 192 512 184.8 512 176S504.8 160 496 160zM256 128c35.35 0 64-28.65 64-64c0-35.35-28.65-64-64-64C220.7 0 192 28.65 192 64C192 99.35 220.7 128 256 128zM256 32c17.64 0 32 14.36 32 32s-14.36 32-32 32S224 81.64 224 64S238.4 32 256 32zM368 448h-224C117.5 448 96 469.5 96 496C96 504.8 103.2 512 112 512S128 504.8 128 496C128 487.2 135.2 480 144 480h224c8.828 0 16 7.172 16 16c0 8.844 7.156 16 16 16s16-7.156 16-16C416 469.5 394.5 448 368 448zM336 384h-160C167.2 384 160 391.2 160 400S167.2 416 176 416h160c8.844 0 16-7.156 16-16S344.8 384 336 384zM80 352H64v-16C64 327.2 56.84 320 48 320S32 327.2 32 336V352H16C7.156 352 0 359.2 0 368S7.156 384 16 384H32v16C32 408.8 39.16 416 48 416S64 408.8 64 400V384h16C88.84 384 96 376.8 96 368S88.84 352 80 352z"/></svg>
